X: 1
T:The Dairy Maid  "http://freespace.virgin.net/michael.clarke2/index.htm
M:6/8
L:1/8
Q:80
C:3rd & 4th pts D. Macleod
S:Jig
K:HP
|: {g}B/2{d}G3/2{d}B{g}B/2{d}G3/2B|
{g}A{d}A{e}A{g}dB{d}G|
{g}B/2{d}G3/2{d}B{g}B/2{d}G3/2{d}B|  !
{g}A{d}A{e}A{gef}e2d| |
{g}B/2{d}G3/2{d}B{g}B/2{d}G3/2B|
{g}A{d}A{e}A{g}dB{d}G|  !
{g}Bcd{g}B/2G3/2{d}B|
{g}A{d}A{e}A{gef}e2d:| |:
{gBG}B2a{f}g2a|  !
B{d}B{e}B{g}dB{d}G|
{gBG}B2a{f}g2a|
B{d}B{e}B{gef}e2d| |  !
{gBG}B2a{f}g2a|
B{d}B{e}B{g}dB{d}G|
{g}Bcd{g}B/2G3/2{d}B|  !
{g}A{d}A{e}A{gef}e2d:| |:
{gf}g2e{g}d{e}Bd|
{g}B/2{d}A3/2{d}B{g}G{d}G{e}G|  !
{gf}g2e{g}d{e}Bd|
{g}B/2{d}A3/2{d}B{gef}e2f| |
{gf}g2e{g}d{e}Bd|  !
{g}B/2{d}A3/2{d}B{g}G{d}G{e}G|
{g}efg{a}G{d}G{e}G|
{g}A{d}A{e}A{gef}e2d:| |:  !
{gBd}B2A{g}B{d}B{e}B|
{g}G{d}B{G}B{g}dB{d}G|
{gBd}B2A{g}B{d}B{e}B|  !
{g}A{d}A{e}A{gef}e2d| |
{gBd}B2A{g}B{d}B{e}B|
{g}G{d}Be{g}dB{d}G|  !
{g}efg{a}G{d}G{e}G|
{g}A{d}A{e}A{gef}e2d:|
